!!!OTL: WAS TRUG MARIA UNTER IHREM HERZEN
!!!ARE: Europa, Mitteleuropa, Deutschland, Westfalen, Paderborn
!!!SCT: E1189
!!!YEM: Copyright 1995, estate of Helmut Schaffrath.
**kern
*ICvox
*Ivox
*M2/4
*k[f#]
*G:
{8d
=1
8g
8g
8g
8a
=2
8b
8a
8g
8g}
=3
{4b
16dd
16cc
16b
16a
=4
4b
8g}
{16g
16b
=5
8dd
8dd
8dd
8dd
=6
8ee
8dd
8cc
8b}
=7
{8a
8b
8cc
8cc
=8
8dd
8cc
8b
8a}
=9
{4b
16dd
16cc
16b
16a
=10
4b
8g}
==
!!!AGN: Ansinge -, Brauchtums - Lied, Kirchen - Fest, Silvester, Namenstag, und Taufe Jesu
!!!ONB: ESAC (Essen Associative Code) Database: ERK3
!!!AMT: simple duple
!!!AIN: vox
!!!EED: Helmut Schaffrath
!!!EEV: 1.0
*-
